X:1
T:Title
%%score ( 1 2 ) { 3 | 4 }
L:1/8
Q:1/4=114
M:4/4
K:F
V:1 treble nm="Grand Piano, Soprano"
V:2 treble 
V:3 bass nm="Choir Pad, Hail the Holy Night, A. Hyde"
V:4 bass 
V:1
 C2 [A,CF]6 | [A,CF]2 [CFA]6 | [CFA]2 [CFc]2 [DFB]2 [CFA]2 | [B,CEG]2 [A,CF]6 | [CFA]2 [CEG]6 | %5
w: By~Carl~Harold~Lowden *|||||
 [CEG]2 [EGc]6 | [EGc]2 [EGe]2 [FAd]2 [EGc]2 | [DFG=B]2 [CEGc]6 | C2 [A,CF]6 | [A,CF]2 [CFA]6 | %10
w: |||||
 [CFA]2 [CFc]2 [DFB]2 [CFA]2 | [B,EG]2 [A,DF]6 | [F,CE]2 [F,B,D]2[K:treble] [B,DF]2 [DFB]2 | %13
w: |||
 [DFBd]2 [CFAc]2 [CFA]2 [A,DF]2 | [DFB]2 [CFA]4 [B,CEG]2- | [B,CEG]2 [A,CF]6 | z2 c6 | %17
w: ||||
 [Gc]2 [Ac]2 [GB]2 [FA]2 | z2 A6 | [EA]2 [FA]2 [EG]2 [DF]2 | [CE]2 [B,D]2 [DF]2 [DB]2 | %21
w: ||||
 [Fd]2 [Fc]4 [FA]2 | [Af]2 [Ge]4 [Fd]2- | [Fd]2 [Ec]6 | z2 c6 | [Gc]2 [Ac]2 [GB]2 [FA]2 | z2 A6 | %27
w: ||||||
 [EA]2 [GA]2 [EG]2 [DF]2 | [_EF]2 [Dd]2 [Fd]2 [Fe]2 | [Fd]2 [Ff]2 [Fc]2 [^Fc]2 | %30
w: |||
 [GB]2 [FA]4 [EG]2- | [EG]2 F6- | F2 z2 z4 |] %33
w: |||
V:2
 x8 | x8 | x8 | x8 | x8 | x8 | x8 | x8 | x8 | x8 | x8 | x8 | x4[K:treble] x4 | x8 | x8 | x8 | %16
 c2 z2 E2 F2 | x8 | A2 z2 ^C2 D2 | x8 | x8 | x8 | x8 | x8 | c2 z2 E2 F2 | x8 | A2 z2 ^C2 D2 | x8 | %28
 x8 | x8 | x8 | x8 | x8 |] %33
V:3
 C,2 F,2 C,2 A,,2 | F,,2 F,2 C,2 A,,2 | F,,2 A,,2 B,,2 C,2 | C,2 F,2 C,2 A,,2 | %4
 F,,2 C,2 G,,2 E,,2 | C,,2 C,2 G,,2 E,,2 | C,,2 C,,2 F,,2 G,,2 | G,,2 C,2 G,,2 E,,2 | %8
 C,,2 F,2 C,2 A,,2 | F,,2 F,2 C,2 A,,2 | F,,2 A,,2 B,,2 C,2 | ^C,2 D,2 E,2 D,2 | %12
 A,,2 B,,2 B,,2 B,,2 | B,,2 F,2 F,2 D,2 | B,,2 C,2 D,2 E,2 | C,2 F,2 C,2 F,,2 | %16
 z4[K:treble] C2 C2 | C2 C2 C2 C2 | z4[K:bass] A,2 A,2 | A,2 A,2 A,2 A,2 | F,2 F,2 F,2 F,2 | %21
 B,2 A,4[K:treble] C2 | D2 C4 =B,2- | B,2 C6 | z4 C2 C2 | C2 C2 C2 C2 | z4[K:bass] A,2 A,2 | %27
 A,2 A,2 A,2 A,2 | A,2 F,2 B,2 _A,2 | _A,2 =A,2 A,2 A,2 | D2 C4 B,2- | B,2 A,6- | A,2 z2 z4 |] %33
V:4
 z8 | z8 | z8 | z8 | z8 | z8 | z8 | z8 | z8 | z8 | z8 | z8 | z8 | z8 | z8 | z8 | z4 C,2 D,2 | %17
 E,2 F,2 G,2 A,2 | z4 A,,2 =B,,2 | ^C,2 D,2 E,2 F,2 | A,,2 B,,2 B,,2 B,,2 | B,,2 F,4 F,2 | %22
 D,2 G,4 G,2- | G,2 C,6 | z4 C,2 D,2 | E,2 F,2 G,2 A,2 | z4 A,,2 =B,,2 | ^C,2 D,2 E,2 F,2 | %28
 F,2 B,,2 B,,2 =B,,2 | =B,,2 C,2 C,2 D,2 | G,,2 C,4 C,2- | C,2 F,6- | F,2 z2 z4 |] %33

